X: 4108
M: C|
L: 1/8
K: G
uB |\
d2(gd) BGdB | Aaag fdef |\
gfgd ecdB | cAdc BGG :|\
c |\
(B/A/G) (DG) EGDG | ABcB cedc |\


